X:171
T:Rose in the Heather, The    
B:CRE1.037 (Ros sa bhFraoch)
F:file ID: cre.1/171rose_h
S:Tommy Potts
M:6/8
Q:160
R:jig
K:D
A/G/|FAF E3|DFA BAF|ABd ede|fdB AFE|
F3 E3|DFA BAF|AdB AFE|FDD D2:|
|:d|fdB ABd|faa afd|g2g fed|Bee efg|
fdB ABd|faa afa|baf gfe|1 fdd d2:|\
[2 fdB AFE||

%%%

